packages/foundations/assets/icons/functional/images/transportation/train_and_car_24_inverted.svg

<svg width="24" height="24" viewBox="0 0 24 24" fill="none" xmlns="http://www.w3.org/2000/svg">
<g clip-path="url(#clip0_2214_6812)">
<path fill-rule="evenodd" clip-rule="evenodd" d="M3.06516 17.822C3.65016 18.297 4.34216 18.789 5.20216 19.342C5.74116 19.689 6.47216 19.954 8.45016 19.996V20.9C8.45016 21.064 8.46516 21.225 8.49216 21.381L8.48716 21.401C8.49416 21.434 8.50716 21.465 8.50716 21.501C8.50716 21.777 8.28316 22.001 8.00716 22.001C8.00316 22.001 7.99616 21.999 7.99616 21.999L5.99316 22.001C5.44116 22.001 4.99316 21.553 4.99316 21.001C4.99316 20.864 5.02016 20.734 5.07016 20.615C4.70616 20.415 4.34116 20.098 3.99716 19.633C3.55916 19.042 3.24916 18.438 3.06516 17.822ZM16.183 10.9999L16.3262 11L17.8472 11.001C18.0785 11.0017 18.2734 11.0024 18.4173 11.003L18.5932 11.004C19.2892 11.01 19.9772 11.567 20.1352 12.192C20.2412 12.609 20.4662 13.622 20.8102 15.23L21.0022 15.895H21.0202C21.5742 15.952 22.0022 16.418 22.0022 16.983V17.233C22.0022 17.751 21.6442 18.184 21.1632 18.3C21.1152 18.742 21.0792 19.023 21.0562 19.145C21.0442 19.205 21.0292 19.267 21.0112 19.332C21.0142 19.364 21.0152 19.398 21.0152 19.431V20.898C21.0152 21.506 20.5222 21.998 19.9152 21.998H19.7012C19.0942 21.998 18.6012 21.506 18.6012 20.898L18.4882 20.933C17.5202 21.079 16.5522 21.152 15.5842 21.152C14.6162 21.152 13.6482 21.079 12.6802 20.933L12.5662 20.89C12.5662 21.506 12.0732 21.998 11.4662 21.998H11.2522C10.6442 21.998 10.1522 21.506 10.1522 20.898V19.431L10.1562 19.335C10.1532 19.326 10.1502 19.317 10.1482 19.308C10.1192 19.202 10.0742 18.875 10.0112 18.328L10.0972 18.331C9.49116 18.331 9.00016 17.84 9.00016 17.234V16.984C9.00016 16.378 9.49116 15.887 10.0972 15.887L10.1602 15.89L10.3522 15.229L10.9832 12.325C11.1812 11.644 11.7652 10.999 12.7142 10.999L16.183 10.9999ZM16.1272 18.7H15.0332C14.7292 18.7 14.4832 18.946 14.4832 19.25C14.4832 19.554 14.7292 19.8 15.0332 19.8H16.1272C16.4312 19.8 16.6772 19.554 16.6772 19.25C16.6772 18.946 16.4312 18.7 16.1272 18.7ZM11.3982 17.404L11.3952 17.415C11.3092 17.737 11.5002 18.067 11.8212 18.154L12.9842 18.47C13.3112 18.556 13.6432 18.363 13.7282 18.04L13.7312 18.029C13.8162 17.707 13.6262 17.377 13.3052 17.29L12.1422 16.974C11.8152 16.888 11.4832 17.081 11.3982 17.404ZM19.0212 16.974L17.8542 17.29C17.5332 17.378 17.3432 17.707 17.4282 18.029L17.4312 18.04C17.5172 18.363 17.8482 18.556 18.1712 18.47L19.3382 18.154C19.6592 18.066 19.8492 17.737 19.7642 17.415L19.7612 17.404C19.6752 17.081 19.3442 16.889 19.0212 16.974ZM10.0032 1.99902C12.0122 1.99902 13.4432 2.75502 14.4092 4.04002C15.2942 5.21702 15.8892 6.82502 15.9282 8.40202L15.9382 8.78302C15.9352 8.79202 15.9382 8.79702 15.9382 8.80202C15.9382 9.07802 15.7142 9.30202 15.4382 9.30202L13.3572 9.30102C13.3882 9.22802 13.4332 9.16302 13.4562 9.08602C13.5312 8.83602 13.7492 7.96102 13.7812 7.77202C14.1102 6.31302 13.1392 4.75202 11.7952 4.37602C10.6304 4.05016 9.91773 4.00671 9.28166 4.00091L8.8378 4.00016C8.16493 4.00193 7.42924 4.02674 6.19516 4.37402C4.86616 4.74802 3.96616 6.26202 4.17716 7.59902C4.36216 8.41902 4.48116 8.91502 4.53216 9.08602C4.75416 9.83102 5.36016 10.393 6.11016 10.564C7.22316 10.755 8.18416 10.853 8.99316 10.857C9.25616 10.858 9.54616 10.834 9.83016 10.816C9.62316 11.125 9.45916 11.472 9.34816 11.853L9.33216 11.909L9.32016 11.965L8.76316 14.526C7.89016 15 7.29716 15.924 7.29716 16.985V17.235C7.29716 17.489 7.33816 17.733 7.40316 17.968C6.62716 17.89 6.34316 17.696 6.28316 17.657C4.44816 16.477 3.52416 15.668 2.71316 14.641L2.18516 13.935C2.06116 13.07 1.99216 11.911 1.99816 10.744C2.00216 9.96602 2.02216 9.18502 2.05716 8.40202C2.09616 6.82602 2.62716 5.30102 3.57616 4.04002C4.49416 2.82002 5.84516 2.07602 7.69516 2.00502L10.0032 1.99902ZM18.6982 12.5H12.4312L11.6572 15.889H19.4842L18.6982 12.5ZM5.30616 12.017C4.82116 12.182 4.54516 12.684 4.65116 13.173L5.30916 15.105C5.52416 15.557 6.04916 15.786 6.53416 15.621C7.01916 15.456 7.29516 14.954 7.18916 14.465L6.53116 12.533C6.31616 12.081 5.79116 11.852 5.30616 12.017Z" fill="#1A1C1F"/>
</g>
<defs>
<clipPath id="clip0_2214_6812">
<rect width="24" height="24" fill="white"/>
</clipPath>
</defs>
</svg>

<svg xmlns="http://www.w3.org/2000/svg" width="24" height="24" fill="none"><g clip-path="url(#a)"><path fill="#1A1C1F" fill-rule="evenodd" d="M3.065 17.822c.585.475 1.277.967 2.137 1.52.54.347 1.27.612 3.248.654v.904q0 .247.042.481l-.005.02c.007.033.02.064.02.1a.5.5 0 0 1-.5.5l-.01-.002-2.004.002a1 1 0 0 1-.923-1.386c-.364-.2-.729-.517-1.073-.982a5.9 5.9 0 0 1-.932-1.811M16.183 11h.143l1.521.001.57.002.176.001c.696.006 1.384.563 1.542 1.188q.159.626.675 3.038l.192.665h.018c.554.057.982.523.982 1.088v.25c0 .518-.358.951-.839 1.067q-.072.663-.107.845-.018.09-.045.187.004.049.004.099v1.467a1.1 1.1 0 0 1-1.1 1.1h-.214a1.1 1.1 0 0 1-1.1-1.1l-.113.035a19.5 19.5 0 0 1-5.808 0l-.114-.043c0 .616-.493 1.108-1.1 1.108h-.214a1.1 1.1 0 0 1-1.1-1.1v-1.467l.004-.096-.008-.027q-.043-.16-.137-.98l.086.003A1.097 1.097 0 0 1 9 17.234v-.25c0-.606.491-1.097 1.097-1.097l.063.003.192-.661.631-2.904c.198-.681.782-1.326 1.731-1.326zm-.056 7.7h-1.094a.55.55 0 1 0 0 1.1h1.094a.55.55 0 1 0 0-1.1m-4.729-1.296-.003.011a.604.604 0 0 0 .426.739l1.163.316a.607.607 0 0 0 .744-.43l.003-.011a.605.605 0 0 0-.426-.739l-1.163-.316a.607.607 0 0 0-.744.43m7.623-.43-1.167.316a.605.605 0 0 0-.426.739l.003.011a.605.605 0 0 0 .74.43l1.167-.316a.605.605 0 0 0 .426-.739l-.003-.011a.606.606 0 0 0-.74-.43M10.003 1.999c2.01 0 3.44.756 4.406 2.041.885 1.177 1.48 2.785 1.52 4.362l.01.381c-.004.009 0 .014 0 .019a.5.5 0 0 1-.5.5l-2.082-.001c.031-.073.076-.138.1-.215.074-.25.292-1.125.324-1.314.33-1.459-.642-3.02-1.986-3.396-1.165-.326-1.877-.37-2.513-.375h-.444c-.673 0-1.409.026-2.643.373-1.329.374-2.229 1.888-2.018 3.225q.278 1.23.355 1.487a2.14 2.14 0 0 0 1.578 1.478q1.67.287 2.883.293c.263.001.553-.023.837-.041a3.7 3.7 0 0 0-.482 1.037l-.016.056-.012.056-.557 2.561a2.8 2.8 0 0 0-1.466 2.459v.25c0 .254.041.498.106.733-.776-.078-1.06-.272-1.12-.311-1.835-1.18-2.759-1.989-3.57-3.016l-.528-.706c-.124-.865-.193-2.024-.187-3.191a59 59 0 0 1 .06-2.342A7.57 7.57 0 0 1 3.575 4.04c.918-1.22 2.27-1.964 4.12-2.035zM18.698 12.5h-6.267l-.774 3.389h7.827zm-13.392-.483a1 1 0 0 0-.655 1.156l.658 1.932a1 1 0 0 0 1.88-.64l-.658-1.932a1 1 0 0 0-1.225-.516" clip-rule="evenodd"/></g><defs><clipPath id="a"><path fill="#fff" d="M0 0h24v24H0z"/></clipPath></defs></svg>
